dist/images/ignore/icon-calendar.svg

<svg width="14" height="14" viewBox="0 0 14 14" xmlns="http://www.w3.org/2000/svg" xmlns:sketch="http://www.bohemiancoding.com/sketch/ns"><title>icon-calendar</title><desc>Created with Sketch.</desc><path d="M13.75 1h-1.75v1.272c0 .703-.725 1.228-1.475 1.228-.75 0-1.525-.525-1.525-1.228v-1.272h-4v1.272c0 .703-.75 1.228-1.5 1.228s-1.5-.525-1.5-1.228v-1.272h-1.75c-.138 0-.25.113-.25.25v12.5c0 .137.113.25.25.25h13.5c.137 0 .25-.113.25-.25v-12.5c0-.137-.113-.25-.25-.25zm-1.25 11.5h-11v-8h11v8zm-2-9.5c.553 0 1-.447 1-1v-1c0-.553-.447-1-1-1-.553 0-1 .447-1 1v1c0 .553.447 1 1 1zm-7 0c.553 0 1-.447 1-1v-1c0-.553-.447-1-1-1-.553 0-1 .447-1 1v1c0 .553.447 1 1 1z" sketch:type="MSShapeGroup" fill="#8596A5"/></svg>

<svg width="14" height="14" viewBox="0 0 14 14" xmlns="http://www.w3.org/2000/svg"><title>icon-calendar</title><path d="M13.75 1H12v1.272c0 .703-.725 1.228-1.475 1.228C9.775 3.5 9 2.975 9 2.272V1H5v1.272C5 2.975 4.25 3.5 3.5 3.5S2 2.975 2 2.272V1H.25C.112 1 0 1.113 0 1.25v12.5c0 .137.113.25.25.25h13.5c.137 0 .25-.113.25-.25V1.25c0-.137-.113-.25-.25-.25zM12.5 12.5h-11v-8h11v8zm-2-9.5c.553 0 1-.447 1-1V1c0-.553-.447-1-1-1-.553 0-1 .447-1 1v1c0 .553.447 1 1 1zm-7 0c.553 0 1-.447 1-1V1c0-.553-.447-1-1-1-.553 0-1 .447-1 1v1c0 .553.447 1 1 1z" fill="#8596A5"/></svg>
